X: 2283
T: The Carle he came o'er the Craft, wee his beard new shaven.   a Reel.
%R: reel
B: Niel Gow & Sons "Complete Repository" v.2 p.28 #3
Z: 2021 John Chambers <jc:trillian.mit.edu>
N: In bars 6,10, the low G notes should probably have naturals added.
M: C|
L: 1/8
K: A
% - - - - - - - - - -
V: 1 staves=2
|:\
A3 e c<A ce | =g2d2 (B/=c/d) BG | A3 e cAce | aefd (c/d/e) TcA :| aA-A>B ~c>def | =gG-G=c B/c/d BG |
Aa ^gb a2 ef/g/ | aefe (c/d/e) Tc>A || aA-A>B Tc>def | =gG-G=c (B/c/d) BG | Aa ^gb aefg | aefd cecA |]
% - - - - - - - - - -
% Voice 2 preserves the staff layout in the book.
V: 2 clef=bass middle=d
|:\
a2a2 a2a2 | =g2g2 g2g2 | a2a2 a2a2 | c2d2 a2a2 :| a2a2 a2a2 | =g2g2 g2g2 |
a2e2 a2a2 | e2e2 A2A2 || a2a2 a2a2 | =g2g2 g2g2 |
[a2A2][b2B2] [c'2c2][d'2d2] | [e'2e2][e'2e2] [a2A2][a2A2] |]


